X:1
T: The Laird o' Thurms
C:J. Scott Skinner
R:Strathspey
Q: 128
K:A
M:4/4
L:1/16
|:g2|((3a2g2f2) ((3e2f2g2) a4 e3d|ce3 A3a c3B B3g|((3a2g2f2) ((3e2f2g2) a4 e3c|d3f B3e c3A A3g|
((3a2g2f2) ((3e2f2g2) a4 e3d|ce3 A3a c3B B3g|((3a2g2f2) ((3e2f2e2) ((3f2e2^d2) e3c|df3 B3e cA3 A2c2|
f4 c3f A3f c3f|((3c2f2g2) ((3a2g2f2) ((3c2f2g2) ((3a2g2f2) |e4 B3e G3e B3e|((3B2e2f2) ((3g2f2e2) ((3b2e2f2) ((3g2f2e2) |
a4 e3a c3e A3g|((3a2g2f2) ((3g2f2e2) ((3f2e2d2) ((3e2d2c2) |((3d2e2f2) ((3B2c2d2) ((3c2d2e2) ((3A2B2c2) |((3d2e2f2) ((3e2f2g2) a6:|
